findly-builder/apps/searchassist/src/assets/icons/content/stop.svg

<svg width="12" height="12" viewBox="0 0 12 12" fill="none" xmlns="http://www.w3.org/2000/svg">
<path d="M6 0C2.69351 0 0 2.69351 0 6C0 9.30649 2.69351 12 6 12C9.30649 12 12 9.30649 12 6C12 2.69351 9.30649 0 6 0ZM6 0.923077C8.80889 0.923077 11.0769 3.19111 11.0769 6C11.0769 7.23678 10.6334 8.36899 9.90144 9.2488L2.7512 2.09856C3.63101 1.36659 4.76322 0.923077 6 0.923077ZM2.09856 2.7512L9.2488 9.90144C8.36899 10.6334 7.23678 11.0769 6 11.0769C3.19111 11.0769 0.923077 8.80889 0.923077 6C0.923077 4.76322 1.36659 3.63101 2.09856 2.7512Z" fill="#DD3646"/>
</svg>

<svg width="12" height="12" fill="none" xmlns="http://www.w3.org/2000/svg"><path d="M6 0a6.01 6.01 0 0 0-6 6c0 3.306 2.694 6 6 6s6-2.694 6-6-2.694-6-6-6Zm0 .923A5.07 5.07 0 0 1 11.077 6 5.064 5.064 0 0 1 9.9 9.249l-7.15-7.15A5.064 5.064 0 0 1 6 .923ZM2.099 2.751l7.15 7.15A5.064 5.064 0 0 1 6 11.077 5.07 5.07 0 0 1 .923 6c0-1.237.444-2.369 1.176-3.249Z" fill="#DD3646"/></svg>
